X:1
T:Title
%%score { ( 1 4 ) | ( 2 3 ) }
L:1/8
Q:1/4=80
M:4/4
K:Eb
V:1 treble nm="Grand Piano"
V:4 treble 
V:2 bass 
V:3 bass 
V:1
 z G2 G [DF]2 [CE]2 | [DF]2 [CE][DF] G3 G | G4 z GGG | [B,B]2 .[CA]2 [EG]2 F2 |[M:8/4] [B,EG]8 z8 | %5
[M:4/4] [CEA]4 [B,EG]4 |] %6
V:2
 z [E,B,E]2 [E,B,E] [B,,B,]2 [C,G,]2 | [B,,B,]2 [C,G,]B,- [E,B,E]3 [E,B,E] | %2
 [E,B,E]4 z [E,B,E][E,B,E][E,B,E] | G,,2 z G z2 D2 |[M:8/4] E,8 z8 |[M:4/4] A,,4 E,4 |] %6
V:3
 x8 | z2 z B,, z4 | x8 | z2 A,,2 B,,4 |[M:8/4] x16 |[M:4/4] x8 |] %6
V:4
 x8 | x8 | x8 | E4 B,4 |[M:8/4] x16 |[M:4/4] x8 |] %6

